public/images/expeditions/mountains.svg

<?xml version="1.0" encoding="utf-8"?>
<!DOCTYPE svg PUBLIC "-//W3C//DTD SVG 20010904//EN" "http://www.w3.org/TR/2001/REC-SVG-20010904/DTD/svg10.dtd">
<svg version="1.0" xmlns="http://www.w3.org/2000/svg" width="1800px" height="604px" viewBox="0 0 1800 604" preserveAspectRatio="xMidYMid meet">
 <g fill="#000000">
  <path d="M0 307.4 c0 -236.9 0.3 -296.4 1.2 -295.8 0.7 0.5 3.4 2.3 5.9 4.1 3.9 2.8 5.5 3.3 10.1 3.3 5 0 5.8 -0.3 11.3 -5.1 10.2 -8.6 8.9 -8.3 19.5 -4.9 5.5 1.8 10.5 4.1 12 5.5 1.6 1.5 3.8 2.5 5.6 2.5 1.6 0 4.8 1 6.9 2.1 16.5 8.8 20.1 10 32.5 11 5.8 0.4 13.2 1.1 16.6 1.4 5.1 0.6 6.5 0.4 9.5 -1.4 1.8 -1.1 4.1 -2.1 4.9 -2.1 0.9 0 5.7 2.5 10.8 5.5 5.1 3 10.2 5.5 11.3 5.5 1.1 0 4.1 0.9 6.7 1.9 10.5 4.2 26.9 9.1 30.7 9.1 2.3 0 5.9 0.9 8 2.1 10.5 5.4 16.3 6.1 20.6 2.5 2.8 -2.4 3.3 -2.4 14.6 -1.9 11.5 0.5 24.5 3.2 25.8 5.3 0.9 1.5 7 1.2 12.9 -0.5 3.4 -1 6.3 -2.7 8.5 -5 1.8 -1.9 4 -3.5 5 -3.5 0.9 0 3.3 -1.6 5.2 -3.6 l3.4 -3.5 13 0.1 c7.2 0 13.7 0.1 14.5 0 2.9 -0.2 10.1 1.8 11.8 3.2 2.1 1.7 8.8 4.8 10.6 4.8 0.7 0 3.4 1.6 6 3.7 l4.7 3.6 4 -2.2 c5.1 -2.9 7.8 -2.2 11 2.6 1.6 2.5 3.8 4.3 6.5 5.3 2.3 0.8 5.5 3.1 7.2 5.1 1.7 2 5.7 5 8.9 6.7 5.7 3 13.3 10.7 13.3 13.5 0 0.7 1.8 2.8 4 4.6 2.2 1.7 4.3 4.4 4.6 5.9 0.9 3.7 5.2 10.7 9.4 15.3 1.9 2.1 4.9 5.6 6.5 7.8 1.7 2.2 3.6 4 4.2 4.1 0.7 0 2.1 1.5 3 3.3 3.5 6.6 7.9 12.2 16.1 20.5 4.5 4.6 8.9 9.9 9.7 11.8 0.8 1.9 1.8 3.4 2.4 3.4 0.5 0 1.2 1.5 1.6 3.2 0.4 1.8 2.9 7.9 5.6 13.4 4.6 9.5 5.2 10.2 9.1 11.8 3.3 1.2 4.7 2.5 6 5.4 2.4 5.1 9.8 18.2 12.6 21.9 1.2 1.7 2.2 3.5 2.2 3.9 0 0.5 1.6 2.5 3.5 4.4 11.6 11.5 20.5 21.5 20.5 22.8 0 2.5 2.3 9.2 3.2 9.2 0.4 0 0.8 0.8 0.8 1.9 0 2.9 3.6 6.8 6.9 7.4 2.3 0.5 3.4 1.5 4.5 4.1 1.5 3.7 4.6 5.1 18.3 8.1 3.9 0.9 8.2 2.5 9.5 3.6 1.2 1 4 3.3 6.1 5.1 2.2 1.7 4.3 4.1 4.7 5.3 0.5 1.3 2.4 2.6 4.7 3.3 6.5 2 17.6 10.3 19.7 14.8 1 2.1 3.1 5.5 4.6 7.4 1.5 1.9 3 5.5 3.4 8 0.9 5.8 3.6 10.1 8 12.4 1.9 1 3.7 2.4 4 3.2 0.3 0.7 2.4 2.3 4.8 3.5 2.4 1.2 6.4 3.7 8.9 5.5 3.5 2.6 5.7 3.4 8.8 3.4 5.9 0 13.7 2.8 16.9 6 1.5 1.5 4.2 3.5 6 4.4 1.8 0.9 3.2 2.1 3.2 2.6 0 0.6 1.2 1.6 2.7 2.3 3.4 1.5 8.4 6.5 10 10 1.2 2.6 6.2 6.4 12.9 9.9 1.8 1 4.7 3.5 6.5 5.7 1.7 2.2 4.8 4.7 6.9 5.5 2.1 0.8 4.1 2 4.5 2.6 0.3 0.5 1.7 1 3 1 2.7 0 12.1 4.8 15.6 7.9 5.3 4.9 12.4 9.4 16.9 10.7 2.6 0.8 5 2.1 5.4 2.9 0.8 2.1 4.3 1.9 7.7 -0.6 1.9 -1.3 3.6 -1.8 4.7 -1.4 0.9 0.4 6.9 1.1 13.2 1.5 9.8 0.6 12.6 1.2 19 3.9 4.1 1.8 8.2 4.1 9.2 5.2 0.9 1 2.9 1.9 4.4 1.9 1.5 0 4.6 0.9 6.8 1.9 11.7 5.5 14.7 6.5 21.3 7.1 6.6 0.6 7.9 1.1 16 6.5 4.8 3.2 11.5 7.9 14.7 10.3 3.2 2.4 7.2 4.9 8.8 5.4 1.5 0.6 3.3 1.9 3.9 2.9 1.1 2.2 7.5 2.7 8.1 0.7 0.3 -0.9 1.7 -0.9 6 0 4.3 1 5.7 1.8 6.1 3.4 0.6 2 1.1 2.1 8 1.5 4.1 -0.3 8.8 -1.2 10.4 -2 1.6 -0.9 5.7 -1.9 9.2 -2.3 6.1 -0.7 6.3 -0.8 10.3 -6 2.2 -3 4.2 -5.4 4.5 -5.4 1.6 0 6.3 3.3 6.8 4.9 0.3 1.1 1.9 2.1 3.8 2.5 1.7 0.4 4.9 1.8 7 3.3 2.5 1.8 5.5 2.8 9 3.1 4.8 0.4 5.6 0.1 9.4 -3 5.5 -4.7 10 -6.5 12.2 -5 6.6 4.6 10.8 6.3 13.8 5.7 1.8 -0.3 3.8 -1.2 4.6 -1.9 2.6 -2.6 7.7 -4.6 11.8 -4.6 2.8 0 6 -1 9.4 -2.9 2.9 -1.6 8.4 -3.9 12.4 -5.1 3.9 -1.2 7.8 -2.9 8.6 -3.6 1.9 -1.9 9.8 -3.7 15.7 -3.5 4.3 0.1 9.8 2.4 19.8 8 4.8 2.7 10.3 4.3 13.2 3.8 1.8 -0.3 7.2 -2.4 12.1 -4.7 6.3 -3 9.2 -5 10.2 -7 0.8 -1.6 3.1 -4.1 5 -5.6 3 -2.3 4.6 -2.7 10.9 -2.8 6.9 -0.2 7.8 -0.5 13.7 -4.4 3.4 -2.3 6.6 -4.2 7.2 -4.2 0.5 0 2.1 0.8 3.5 1.9 1.5 1 4.5 2.1 6.7 2.5 4 0.7 14.5 6.4 14.5 7.8 0 2.2 4.3 4.8 8 4.8 3.2 0 4.3 -0.5 5.7 -2.6 3.1 -4.8 12.2 -13.6 13.5 -13.1 7.9 3.3 12.2 3.9 20.7 2.8 4.7 -0.7 10.5 -1.4 12.8 -1.7 3.3 -0.5 5 -0.1 7.6 1.5 1.9 1.2 4.6 2.1 6 2.1 3.4 0 11.5 -4.9 12.3 -7.5 0.4 -1.1 1 -2.2 1.3 -2.5 0.4 -0.3 1.7 -2 3 -3.7 2.7 -4 3.9 -4.1 8.8 -0.7 3.1 2.1 4.5 2.4 7.3 1.9 4.8 -1 7.5 -0.9 14 0.6 3 0.7 7.8 1.3 10.5 1.4 5.2 0.2 9.8 1.6 11 3.4 0.3 0.6 2.2 1.1 4.1 1.1 2.9 0 3.8 -0.6 5.5 -3.5 1.2 -1.9 2.7 -3.5 3.5 -3.5 0.8 0 4 1.4 7.1 3 8.2 4.4 9.6 4.1 18.3 -4.1 12.9 -12.1 12.7 -12 17.1 -11.3 2.5 0.4 4.9 0.2 6.3 -0.6 1.9 -1 2.9 -0.9 5.7 0.6 2.8 1.5 6 1.9 18.4 2 8.3 0.1 18 0.5 21.7 0.9 5.3 0.6 7.7 0.4 10.8 -0.9 2.2 -0.9 6.1 -1.6 8.5 -1.6 7.5 0 26.1 -4.6 35.5 -8.8 2.5 -1.1 7.8 -2.8 11.9 -3.8 6.6 -1.6 7.5 -2.1 8.7 -4.9 1.6 -4 3.9 -5.9 9.9 -8.6 2.7 -1.2 9 -5 14.1 -8.5 5 -3.5 10.4 -6.6 11.8 -7 1.5 -0.3 3.1 -1.5 3.6 -2.5 0.6 -1.1 3.8 -2.7 8 -3.9 3.9 -1.1 7 -2.5 7 -3 0 -0.6 0.6 -1 1.4 -1 0.8 0 2.1 -0.6 2.8 -1.3 0.7 -0.6 2.3 -1.9 3.4 -2.7 1.2 -0.8 4.6 -3.3 7.5 -5.5 3 -2.2 7.1 -4.8 9.1 -5.7 2.1 -1 3.8 -2.2 3.8 -2.8 0 -0.5 1 -1 2.3 -1 1.3 0 3.8 -1.1 5.7 -2.5 1.9 -1.4 3.9 -2.5 4.5 -2.5 0.6 0 2.2 -1.1 3.5 -2.4 1.2 -1.4 3.6 -2.8 5.2 -3.1 1.6 -0.4 4.4 -1.9 6.1 -3.3 5.7 -4.8 9.2 -6.9 12.5 -7.7 1.8 -0.3 3.2 -1.1 3.2 -1.6 0 -0.5 0.8 -0.9 1.9 -0.9 1 0 2.9 -0.8 4.2 -1.9 1.3 -1 5.6 -3.5 9.4 -5.5 11.2 -6 16.8 -9.3 18 -10.9 0.5 -0.7 2 -1.9 3.3 -2.6 1.3 -0.7 3.3 -2 4.4 -2.9 1.1 -0.9 3.1 -2.7 4.5 -3.9 5.1 -4.2 16.9 -10.2 24.3 -12.3 10.9 -3.1 12.9 -3.7 19 -5.9 3 -1.1 7.1 -2.1 9 -2.1 1.9 0 7.8 -1.4 13 -3.1 13.3 -4.2 35 -7 38.8 -5 l2.2 1.2 0 167.9 0 168 -900 0 -900 0 0 -296.6z"/>
 </g>
</svg>

<?xml version="1.0" encoding="UTF-8" standalone="no"?>
<!DOCTYPE svg PUBLIC "-//W3C//DTD SVG 1.1//EN" "http://www.w3.org/Graphics/SVG/1.1/DTD/svg11.dtd">
<svg width="100%" height="100%" viewBox="0 0 1800 1086" version="1.1" xmlns="http://www.w3.org/2000/svg" xmlns:xlink="http://www.w3.org/1999/xlink" xml:space="preserve" xmlns:serif="http://www.serif.com/" style="fill-rule:evenodd;clip-rule:evenodd;stroke-linejoin:round;stroke-miterlimit:2;">
    <g id="Artboard1" transform="matrix(1,0,0,1.79647,0,0)">
        <rect x="0" y="0" width="1800" height="604" style="fill:none;"/>
        <clipPath id="_clip1">
            <rect x="0" y="0" width="1800" height="604"/>
        </clipPath>
        <g clip-path="url(#_clip1)">
            <g transform="matrix(1,0,0,0.556648,0,0)">
                <path d="M-18.182,307.4C-18.182,307.4 -6.666,11 -5.766,11.6C-5.066,12.1 4.6,13.9 7.1,15.7C11,18.5 12.6,19 17.2,19C22.2,19 23,18.7 28.5,13.9C38.7,5.3 37.4,5.6 48,9C53.5,10.8 58.5,13.1 60,14.5C61.6,16 63.8,17 65.6,17C67.2,17 70.4,18 72.5,19.1C89,27.9 92.6,29.1 105,30.1C110.8,30.5 118.2,31.2 121.6,31.5C126.7,32.1 128.1,31.9 131.1,30.1C132.9,29 135.2,28 136,28C136.9,28 141.7,30.5 146.8,33.5C151.9,36.5 157,39 158.1,39C159.2,39 162.2,39.9 164.8,40.9C175.3,45.1 191.7,50 195.5,50C197.8,50 201.4,50.9 203.5,52.1C214,57.5 219.8,58.2 224.1,54.6C226.9,52.2 227.4,52.2 238.7,52.7C250.2,53.2 263.2,55.9 264.5,58C265.4,59.5 271.5,59.2 277.4,57.5C280.8,56.5 283.7,54.8 285.9,52.5C287.7,50.6 289.9,49 290.9,49C291.8,49 294.2,47.4 296.1,45.4L299.5,41.9L312.5,42C319.7,42 326.2,42.1 327,42C329.9,41.8 337.1,43.8 338.8,45.2C340.9,46.9 347.6,50 349.4,50C350.1,50 352.8,51.6 355.4,53.7L360.1,57.3L364.1,55.1C369.2,52.2 371.9,52.9 375.1,57.7C376.7,60.2 378.9,62 381.6,63C383.9,63.8 387.1,66.1 388.8,68.1C390.5,70.1 394.5,73.1 397.7,74.8C403.4,77.8 411,85.5 411,88.3C411,89 412.8,91.1 415,92.9C417.2,94.6 419.3,97.3 419.6,98.8C420.5,102.5 424.8,109.5 429,114.1C430.9,116.2 433.9,119.7 435.5,121.9C437.2,124.1 439.1,125.9 439.7,126C440.4,126 441.8,127.5 442.7,129.3C446.2,135.9 450.6,141.5 458.8,149.8C463.3,154.4 467.7,159.7 468.5,161.6C469.3,163.5 470.3,165 470.9,165C471.4,165 472.1,166.5 472.5,168.2C472.9,170 475.4,176.1 478.1,181.6C482.7,191.1 483.3,191.8 487.2,193.4C490.5,194.6 491.9,195.9 493.2,198.8C495.6,203.9 503,217 505.8,220.7C507,222.4 508,224.2 508,224.6C508,225.1 509.6,227.1 511.5,229C523.1,240.5 532,250.5 532,251.8C532,254.3 534.3,261 535.2,261C535.6,261 536,261.8 536,262.9C536,265.8 539.6,269.7 542.9,270.3C545.2,270.8 546.3,271.8 547.4,274.4C548.9,278.1 552,279.5 565.7,282.5C569.6,283.4 573.9,285 575.2,286.1C576.4,287.1 579.2,289.4 581.3,291.2C583.5,292.9 585.6,295.3 586,296.5C586.5,297.8 588.4,299.1 590.7,299.8C597.2,301.8 608.3,310.1 610.4,314.6C611.4,316.7 613.5,320.1 615,322C616.5,323.9 618,327.5 618.4,330C619.3,335.8 622,340.1 626.4,342.4C628.3,343.4 630.1,344.8 630.4,345.6C630.7,346.3 632.8,347.9 635.2,349.1C637.6,350.3 641.6,352.8 644.1,354.6C647.6,357.2 649.8,358 652.9,358C658.8,358 666.6,360.8 669.8,364C671.3,365.5 674,367.5 675.8,368.4C677.6,369.3 679,370.5 679,371C679,371.6 680.2,372.6 681.7,373.3C685.1,374.8 690.1,379.8 691.7,383.3C692.9,385.9 697.9,389.7 704.6,393.2C706.4,394.2 709.3,396.7 711.1,398.9C712.8,401.1 715.9,403.6 718,404.4C720.1,405.2 722.1,406.4 722.5,407C722.8,407.5 724.2,408 725.5,408C728.2,408 737.6,412.8 741.1,415.9C746.4,420.8 753.5,425.3 758,426.6C760.6,427.4 763,428.7 763.4,429.5C764.2,431.6 767.7,431.4 771.1,428.9C773,427.6 774.7,427.1 775.8,427.5C776.7,427.9 782.7,428.6 789,429C798.8,429.6 801.6,430.2 808,432.9C812.1,434.7 816.2,437 817.2,438.1C818.1,439.1 820.1,440 821.6,440C823.1,440 826.2,440.9 828.4,441.9C840.1,447.4 843.1,448.4 849.7,449C856.3,449.6 857.6,450.1 865.7,455.5C870.5,458.7 877.2,463.4 880.4,465.8C883.6,468.2 887.6,470.7 889.2,471.2C890.7,471.8 892.5,473.1 893.1,474.1C894.2,476.3 900.6,476.8 901.2,474.8C901.5,473.9 902.9,473.9 907.2,474.8C911.5,475.8 912.9,476.6 913.3,478.2C913.9,480.2 914.4,480.3 921.3,479.7C925.4,479.4 930.1,478.5 931.7,477.7C933.3,476.8 937.4,475.8 940.9,475.4C947,474.7 947.2,474.6 951.2,469.4C953.4,466.4 955.4,464 955.7,464C957.3,464 962,467.3 962.5,468.9C962.8,470 964.4,471 966.3,471.4C968,471.8 971.2,473.2 973.3,474.7C975.8,476.5 978.8,477.5 982.3,477.8C987.1,478.2 987.9,477.9 991.7,474.8C997.2,470.1 1001.7,468.3 1003.9,469.8C1010.5,474.4 1014.7,476.1 1017.7,475.5C1019.5,475.2 1021.5,474.3 1022.3,473.6C1024.9,471 1030,469 1034.1,469C1036.9,469 1040.1,468 1043.5,466.1C1046.4,464.5 1051.9,462.2 1055.9,461C1059.8,459.8 1063.7,458.1 1064.5,457.4C1066.4,455.5 1074.3,453.7 1080.2,453.9C1084.5,454 1090,456.3 1100,461.9C1104.8,464.6 1110.3,466.2 1113.2,465.7C1115,465.4 1120.4,463.3 1125.3,461C1131.6,458 1134.5,456 1135.5,454C1136.3,452.4 1138.6,449.9 1140.5,448.4C1143.5,446.1 1145.1,445.7 1151.4,445.6C1158.3,445.4 1159.2,445.1 1165.1,441.2C1168.5,438.9 1171.7,437 1172.3,437C1172.8,437 1174.4,437.8 1175.8,438.9C1177.3,439.9 1180.3,441 1182.5,441.4C1186.5,442.1 1197,447.8 1197,449.2C1197,451.4 1201.3,454 1205,454C1208.2,454 1209.3,453.5 1210.7,451.4C1213.8,446.6 1222.9,437.8 1224.2,438.3C1232.1,441.6 1236.4,442.2 1244.9,441.1C1249.6,440.4 1255.4,439.7 1257.7,439.4C1261,438.9 1262.7,439.3 1265.3,440.9C1267.2,442.1 1269.9,443 1271.3,443C1274.7,443 1282.8,438.1 1283.6,435.5C1284,434.4 1284.6,433.3 1284.9,433C1285.3,432.7 1286.6,431 1287.9,429.3C1290.6,425.3 1291.8,425.2 1296.7,428.6C1299.8,430.7 1301.2,431 1304,430.5C1308.8,429.5 1311.5,429.6 1318,431.1C1321,431.8 1325.8,432.4 1328.5,432.5C1333.7,432.7 1338.3,434.1 1339.5,435.9C1339.8,436.5 1341.7,437 1343.6,437C1346.5,437 1347.4,436.4 1349.1,433.5C1350.3,431.6 1351.8,430 1352.6,430C1353.4,430 1356.6,431.4 1359.7,433C1367.9,437.4 1369.3,437.1 1378,428.9C1390.9,416.8 1390.7,416.9 1395.1,417.6C1397.6,418 1400,417.8 1401.4,417C1403.3,416 1404.3,416.1 1407.1,417.6C1409.9,419.1 1413.1,419.5 1425.5,419.6C1433.8,419.7 1443.5,420.1 1447.2,420.5C1452.5,421.1 1454.9,420.9 1458,419.6C1460.2,418.7 1464.1,418 1466.5,418C1474,418 1492.6,413.4 1502,409.2C1504.5,408.1 1509.8,406.4 1513.9,405.4C1520.5,403.8 1521.4,403.3 1522.6,400.5C1524.2,396.5 1526.5,394.6 1532.5,391.9C1535.2,390.7 1541.5,386.9 1546.6,383.4C1551.6,379.9 1557,376.8 1558.4,376.4C1559.9,376.1 1561.5,374.9 1562,373.9C1562.6,372.8 1565.8,371.2 1570,370C1573.9,368.9 1577,367.5 1577,367C1577,366.4 1577.6,366 1578.4,366C1579.2,366 1580.5,365.4 1581.2,364.7C1581.9,364.1 1583.5,362.8 1584.6,362C1585.8,361.2 1589.2,358.7 1592.1,356.5C1595.1,354.3 1599.2,351.7 1601.2,350.8C1603.3,349.8 1605,348.6 1605,348C1605,347.5 1606,347 1607.3,347C1608.6,347 1611.1,345.9 1613,344.5C1614.9,343.1 1616.9,342 1617.5,342C1618.1,342 1619.7,340.9 1621,339.6C1622.2,338.2 1624.6,336.8 1626.2,336.5C1627.8,336.1 1630.6,334.6 1632.3,333.2C1638,328.4 1641.5,326.3 1644.8,325.5C1646.6,325.2 1648,324.4 1648,323.9C1648,323.4 1648.8,323 1649.9,323C1650.9,323 1652.8,322.2 1654.1,321.1C1655.4,320.1 1659.7,317.6 1663.5,315.6C1674.7,309.6 1680.3,306.3 1681.5,304.7C1682,304 1683.5,302.8 1684.8,302.1C1686.1,301.4 1688.1,300.1 1689.2,299.2C1690.3,298.3 1692.3,296.5 1693.7,295.3C1698.8,291.1 1710.6,285.1 1718,283C1728.9,279.9 1730.9,279.3 1737,277.1C1740,276 1744.1,275 1746,275C1747.9,275 1753.8,273.6 1759,271.9C1772.3,267.7 1794,264.9 1797.8,266.9L1808.32,268.1L1830.46,436L1800,1102.75L0,1102.75L-18.182,307.4Z" style="fill-rule:nonzero;"/>
            </g>
        </g>
    </g>
</svg>
